!!!!SEGMENT: pl-stab--3b--001-005_rodowski-aleksander--modlitwa-in-b-wyznawamy.krn
!!!cenid: 18xx:3426
!!!COM: Rodowski, Aleksander
!!!COM-rismID: pe30009627
!!!CDT: <1790->1810
!!!CNT: Polish
!!!OPR: Modlitwa in B
!!!OTL: Wyznawamy
!!!OMV: 005
!!!PDT: 1806
!!!AGN:
!!!YEC: Copyright 2022 Narodowy Instytut Fryderyka Chopina (https://polishscores.org)
!!!YEM: License CC-BY-4.0 (https://creativecommons.org/licenses/by/4.0)
!!!SMS-siglum: PL-STAb
!!!SMS-shelfmark: 3b
!!!SMS-shelfwork: 001-005 M
!!!SMS-variant: Cantus: PL-STAb 3b:10-15
!!!SMS-altvar: Cantus: PL-STAb 3b:16-18
!!!NIFC-rismSourceID: 301050648
!!!NIFC-rismChildID: 301050648
!!!NIFC-islandoraID: pl-stab:961
!!!URL-pdf-islandora: https://repozytorium.nifc.pl/islandora/object/pl-stab%3A961/datastream/PDF/view
!!!URL-scan: https://polish.musicsources.pl/pl/lokalizacje/galeria/rekopisy/4501 @EN{Scan on Polish Music Sources Website} @PL{Skany w portalu Dziedzictwo Muzyki Polskiej w otwartym dostępie}
!!!IIIF:
!!!ONB-nifc: UWAGA: części Modlitwy: 1. Przed oczy twoie (Adagio), 2. Umysł utrapieniem (Moderatto), 3. Życie w uciskach (Adagio), 4. Jeżeli sprawiedliwie (Moderato), 5. Wyznawamy (Adagio), 6. Kiedy nas karzesz (Adagio), 7. Oto nas masz (Andante), 8. Racz nam tedy dać (Allegro)
!!!AIN: 1 bass 1 organ 1 soprn 1 tenor 2 violn
!!!key: d
**kern	**kern	**kern	**kern	**kern	**text	**kern	**text	**kern	**text
*group3	*group3	*group2	*group2	*group1	*	*group1	*	*group1	*
*part6	*part6	*part5	*part4	*part3	*	*part2	*	*part1	*
*staff7	*staff6	*staff5	*staff4	*staff3	*	*staff2	*	*staff1	*
*I"Organo	*I"Organo	*I"Violino Secundo	*I"Violino Primo	*I"Baſso	*	*I"Tenor	*	*I"Canto.	*
*I'org	*I'org	*I'vl 2	*I'vl 1	*I'B	*	*I'T	*	*I'S	*
*Iorgan	*Iorgan	*Ivioln	*Ivioln	*Ibass	*	*Itenor	*	*Isoprn	*
*ICklav	*ICklav	*ICstr	*ICstr	*ICvox	*	*ICvox	*	*ICvox	*
*IGacmp	*IGacmp	*	*	*IGsolo	*	*IGsolo	*	*IGsolo	*
*clefF4	*clefG2	*clefG2	*clefG2	*clefC3	*	*clefC4	*	*clefC1	*
*k[b-]	*k[b-]	*k[b-]	*k[b-]	*k[b-]	*	*k[b-]	*	*k[b-]	*
*d:	*d:	*d:	*d:	*d:	*	*d:	*	*d:	*
*M3/4	*M3/4	*M3/4	*M3/4	*M3/4	*	*M3/4	*	*M3/4	*
*2\right	*2\right	*2\right	*2\right	*2\right	*	*2\right	*	*2\right	*
=1	=1	=1	=1	=1	=1	=1	=1	=1	=1
!LO:TX:t=P:problem=mixed beam	!	!LO:TX:b:i:t=Tacet\nwyznawamy	!LO:TX:b:i:t=Tacet\nwyznawamy	!	!	!LO:TX:t=P:problem=błędnie klucz g2	!	!	!
!	!LO:TX:a:i:t=Adagio	!	!	!LO:TX:a:i:t=Adagio	!	!LO:TX:a:i:t=Adagio	!	!LO:TX:a:i:t=adagio	!
!	!	!	!	!	!	!	!	!LO:TX:t=P:znaki:B-b-:problem	!
!	!	!	!LO:TX:a:i:t=Adagio	!	!	!	!	!	!
!	!	!LO:TX:a:i:t=Adagio	!	!	!	!	!	!	!
8D/L	4.dd\	2.ryy	2.ryy	2.r	.	2.r	.	4.dd\	Wy-
8d\	.	.	.	.	.	.	.	.	.
8d\	.	.	.	.	.	.	.	.	.
8d\	8ff\L	.	.	.	.	.	.	8ff\	-zna-
8d\	8ee\	.	.	.	.	.	.	8ee\	-wa-
8d\J	8dd\J	.	.	.	.	.	.	8dd\	-my
=2	=2	=2	=2	=2	=2	=2	=2	=2	=2
!LO:TX:t=P:problem=mixed beam	!	!	!	!	!	!	!	!	!
!	!	!	!	!LO:TX:i:t=Alto Solo	!	!	!	!	!
8C#X/L	2aa 2ff\	2.ryy	2.ryy	2ff\	Spła-	2.r	.	2aa\	spła-
8c#y/	.	.	.	.	.	.	.	.	.
*tremolo	*	*	*	*	*	*	*	*	*
!LO:TX:t=P:problem=tremolo pod jedną belką z nutami poprzednimi	!	!	!	!	!	!	!	!	!
8c#/	.	.	.	.	.	.	.	.	.
8c#/	.	.	.	.	.	.	.	.	.
8c#/	4gg 4ee\	.	.	4ee\	-czem	.	.	4gg\	-czem
8c#/J	.	.	.	.	.	.	.	.	.
*Xtremolo	*	*	*	*	*	*	*	*	*
=3	=3	=3	=3	=3	=3	=3	=3	=3	=3
8d\L	8ffL 8dd\	2.ryy	2.ryy	8dd\	cze-	2.r	.	8ff\	cze-
8d\	8ff 8dd\	.	.	8dd\	-gos-	.	.	8ff\	-gos-
8B-X\	8ff 8dd\	.	.	8dd\	-my	.	.	8ff\	-my
8B-\	8ff 8dd\	.	.	8dd\	sie	.	.	8ff\	sie
8G#X\	8ff 8dd\	.	.	8dd\	do-	.	.	8ff\	do-
8G#\J	8ffJ 8dd\	.	.	8dd\	-pu-	.	.	8ff\	-pu-
=4	=4	=4	=4	=4	=4	=4	=4	=4	=4
!	!	!	!	!	!	!	!	!LO:LB:g=original	!
4A\	4ff 4dd\	2.ryy	2.ryy	4dd\	-sci-	2.r	.	4ff\	-sci-
4AA/	4ee 4cc#X\	.	.	4cc#X\	-li	.	.	4ee\	-li
4r	4r	.	.	4r	.	.	.	4r	.
=5	=5	=5	=5	=5	=5	=5	=5	=5	=5
!LO:TX:t=P:problem=mixed beam	!	!	!	!	!	!	!	!	!
!LO:SIC:v:o=8C/L	!	!	!	!	!	!	!	!	!
8C#/L	4.gg 4.ee\	2.ryy	2.ryy	4.ee\	wy-	2.r	.	4.gg\	wy-
8c#X\	.	.	.	.	.	.	.	.	.
8c#\	.	.	.	.	.	.	.	.	.
8c#\	8gg 8ee\	.	.	8ee\	-zna-	.	.	8gg\	-zna-
8c#\	8ggL 8ee\	.	.	8ee\	-wa-	.	.	8gg\	-wa-
8c#\J	8ggJ 8ee\	.	.	8ee\	-my	.	.	8gg\	-my
=6	=6	=6	=6	=6	=6	=6	=6	=6	=6
!LLO:SIC:v:s=4c#\	!	!	!	!LO:TX:t=P:problem=pominięty takt	!	!	!	!	!
4c\	4gg 4ee\	2.ryy	2.ryy	2.ryy	.	2.r	.	4gg\	spła-
4d\	4ff 4dd\	.	.	.	.	.	.	4ff\	-czem
4r	4r	.	.	.	.	.	.	4r	.
=7	=7	=7	=7	=7	=7	=7	=7	=7	=7
*	*	*	*	*	*	*	*	*	*ij
!	!	!	!	!LO:LB:g=original	!	!	!	!	!
4c#X\	4bb- 4gg\	2.ryy	2.ryy	4gg\	Spła-	2.r	.	4bb-\	spła-
4d\	4aa 4ff\	.	.	4ff\	-czem	.	.	4aa\	-czem
4r	4r	.	.	4r	.	.	.	4r	.
*	*	*	*	*	*	*	*	*	*Xij
=8	=8	=8	=8	=8	=8	=8	=8	=8	=8
8d\L	8aaL 8ff\	2.ryy	2.ryy	8ff\	cze-	2.r	.	8aa\	cze-
8d\	8gg 8ee\	.	.	8ee\	-gos-	.	.	8gg\	-goś-
!	!	!	!	!	!	!	!	!LO:LB:g=original	!
8B-X\	8ff 8dd\	.	.	8dd\	-my	.	.	8ff\	-my-
8B-\	8ff 8dd\	.	.	8dd\	sie	.	.	8ff\	-sie
8G#X\	8ff 8dd\	.	.	8dd\	do-	.	.	8ff\	do-
8G#\J	8ffJ 8dd\	.	.	8dd\	-pu-	.	.	8ff\	-pu-
=9	=9	=9	=9	=9	=9	=9	=9	=9	=9
!LO:LB:g=original	!LO:LB:g=original	!	!	!	!	!	!	!	!
4A\	4ff 4dd\	2.ryy	2.ryy	4dd\	-sci-	2.r	.	4ff\	-sci-
4AA/	4ee 4cc#X\	.	.	4cc#X\	-li	.	.	4ee\	-li
4r	4r	.	.	4r	.	.	.	4r	.
=10	=10	=10	=10	=10	=10	=10	=10	=10	=10
!LO:TX:t=P:problem=mixed beam	!	!	!	!	!	!	!	!	!
8FF/L	4.cc 4.a\	2.ryy	2.ryy	4.a\	a	2.r	.	4.dd\	a
8F\	.	.	.	.	.	.	.	.	.
8F\	.	.	.	.	.	.	.	.	.
8F\	8cc 8a\	.	.	8a\	po	.	.	8dd\	po
8F\	8ddL 8a\	.	.	8a\	na-	.	.	8dd\	na-
8F\J	8ddJ 8a\	.	.	8a\	-wi-	.	.	8dd\	-wi-
=11	=11	=11	=11	=11	=11	=11	=11	=11	=11
!LO:TX:t=P:problem=mixed beam	!	!	!	!	!	!	!	!	!
8GG/L	8ffL 8b-\	2.ryy	2.ryy	4b-\	-dze-	2.r	.	8ff\L	-dze-
8G\	8eeJ 8b-\	.	.	.	.	.	.	8ee\J	.
8G\	4ee 4b-\	.	.	4b-\	-niu	.	.	4ee\	-niu
8G\	.	.	.	.	.	.	.	.	.
8G\	4r	.	.	4r	.	.	.	4r	.
8G\J	.	.	.	.	.	.	.	.	.
=12	=12	=12	=12	=12	=12	=12	=12	=12	=12
*	*	*	*	*	*	*	*	*	*ij
!LO:TX:t=P:problem=mixed beam	!	!	!	!	!	!	!	!	!
!	!	!	!	!	!	!	!	!LO:LB:g=original	!
8AA/L	4.ee 4.cc#X\	2.ryy	2.ryy	4.cc#X\	a	2.r	.	4.ee\	a
8A\	.	.	.	.	.	.	.	.	.
8A\	.	.	.	.	.	.	.	.	.
8A\	8ee 8cc#\	.	.	8cc#\	po	.	.	8ee\	po
8A\	8eeL 8cc#\	.	.	8cc#\	na-	.	.	8ee\	na-
8A\J	8eeJ 8cc#\	.	.	8cc#\	-wi-	.	.	8ee\	-wi-
=13	=13	=13	=13	=13	=13	=13	=13	=13	=13
!	!	!	!	!LO:LB:g=original	!	!	!	!	!
4d 4D\	8ggL 8ee\	2.ryy	2.ryy	8ee\L	-dze-	2.r	.	8gg\L	-dze-
.	8ffJ 8dd\	.	.	8dd\J	.	.	.	8ff\J	.
4r	8ffL 8dd\	.	.	8dd\	-niu	.	.	8ff\	-niu
*	*	*	*	*	*	*	*	*	*Xij
.	8ee 8cc#X\	.	.	8cc#X\	za-	.	.	8ee\	za-
4A 4AA\	8ee 8cc#\	.	.	8cc#\	-po-	.	.	8ee\	-po-
.	8eeJ 8cc#\	.	.	8cc#\	-mi-	.	.	8ee\	-mi-
=14	=14	=14	=14	=14	=14	=14	=14	=14	=14
4d 4D\	8ggL 8ee\	2.ryy	2.ryy	8ee\L	-na-	2.r	.	8gg\L	-na-
.	8ffJ 8dd\	.	.	8dd\J	.	.	.	8ff\J	.
4r	8ffL 8dd\	.	.	8dd\	-my	.	.	8ff\	-my
.	8ee 8cc#X\	.	.	8cc#X\	cze-	.	.	8ee\	cze-
4A 4AA\	8ee 8cc#\	.	.	8cc#\	-gos-	.	.	8ee\	-gos-
.	8eeJ 8cc#\	.	.	8cc#\	-my	.	.	8ee\	-my
=15	=15	=15	=15	=15	=15	=15	=15	=15	=15
!	!	!	!	!	!	!	!	!LO:LB:g=original	!
8d\L	4.ff 4.dd\	2.ryy	2.ryy	4.dd\	do-	2.r	.	4.ff\	do-
8d\	.	.	.	.	.	.	.	.	.
8B-\	.	.	.	.	.	.	.	.	.
8B-\	8ffL 8dd\	.	.	8dd\	-pie-	.	.	8ff\	-pie-
8G#X\	8ff 8dd\	.	.	8dd\	-ro	.	.	8ff\	-ro
8G#\J	8ffJ 8dd\	.	.	8dd\	pła-	.	.	8ff\	pła-
=16	=16	=16	=16	=16	=16	=16	=16	=16	=16
!LO:LB:g=original	!LO:LB:g=original	!	!	!	!	!	!	!	!
4A\	4ff 4dd\	2.ryy	2.ryy	4dd\	-ka-	2.r	.	4ff\	-ka-
4AA/	4ee 4cc#X\	.	.	4cc#X\	-li	.	.	4ee\	-li
4r	4r	.	.	4r	.	.	.	4r	.
=17	=17	=17	=17	=17	=17	=17	=17	=17	=17
!LO:TX:t=P:problem=mixed beam	!	!	!	!	!	!	!	!	!
8FF/L	4.dd\	2.ryy	2.ryy	2.r	.	2.r	.	4.dd\	wy-
8F\	.	.	.	.	.	.	.	.	.
*tremolo	*	*	*	*	*	*	*	*	*
!LO:TX:t=P:problem=tremolo pod jedną belką z nutami poprzednimi	!	!	!	!	!	!	!	!	!
8F\	.	.	.	.	.	.	.	.	.
8F\	8aa\L	.	.	.	.	.	.	8aa\	-zna-
8F\	8ff\	.	.	.	.	.	.	8ff\	-wa-
8F\J	8dd\J	.	.	.	.	.	.	8dd\	-my
*Xtremolo	*	*	*	*	*	*	*	*	*
=18	=18	=18	=18	=18	=18	=18	=18	=18	=18
*	*	*	*	*clefF4	*	*	*	*	*
!LO:TX:t=P:problem=mixed beam	!	!	!	!	!	!	!	!	!
8GG/L	8ccn\L	2.ryy	2.ryy	8A\	Cze-	2.r	.	8cc\	spła-
8G\	8b-X\J	.	.	8G\	-gos-	.	.	8b-X\	-czem
*tremolo	*	*	*	*	*	*	*	*	*
!LO:TX:t=P:problem=tremolo pod jedną belką z nutami poprzednimi	!	!	!	!	!	!	!	!	!
8G\	4r	.	.	8G\	-my	.	.	4r	.
8G\	.	.	.	8B-\	sie	.	.	.	.
!	!	!	!	!LO:LB:g=original	!	!	!	!	!
8G\	4r	.	.	8G\	do-	.	.	4r	.
8G\J	.	.	.	8F\	-pu-	.	.	.	.
*Xtremolo	*	*	*	*	*	*	*	*	*
=19	=19	=19	=19	=19	=19	=19	=19	=19	=19
*	*	*	*	*	*	*	*	*	*ij
!LO:TX:t=P:problem=mixed beam	!	!	!	!	!	!	!	!	!
!	!	!	!	!	!	!	!	!LO:LB:g=original	!
8EE/L	4.cc\	2.ryy	2.ryy	8F\	-sci-	2.r	.	4.cc\	wy-
8E\	.	.	.	8En\	-li	.	.	.	.
*tremolo	*	*	*	*	*	*	*	*	*
!LO:TX:t=P:problem=tremolo pod jedną belką z nutami poprzednimi	!	!	!	!	!	!	!	!	!
8E\	.	.	.	4r	.	.	.	.	.
8E\	8gg\L	.	.	.	.	.	.	8gg\	-zna-
8E\	8ee\	.	.	4r	.	.	.	8ee\	-wa-
8E\J	8cc\J	.	.	.	.	.	.	8cc\	-my
*Xtremolo	*	*	*	*	*	*	*	*	*
=20	=20	=20	=20	=20	=20	=20	=20	=20	=20
!LO:TX:t=P:problem=mixed beam	!	!	!	!	!	!	!	!	!
8FF/L	8b-X\L	2.ryy	2.ryy	8G\	cze-	2.r	.	8b-X\	spła-
8F\	8a\J	.	.	8F\	-gos-	.	.	8a\	-czem
*tremolo	*	*	*	*	*	*	*	*	*Xij
!LO:TX:t=P:problem=tremolo pod jedną belką z nutami poprzednimi	!	!	!	!	!	!	!	!	!
8F\	4r	.	.	8F\	-my	.	.	4r	.
8F\	.	.	.	8A\	sie	.	.	.	.
8F\	4r	.	.	8F\	do-	.	.	4r	.
8F\J	.	.	.	8C/	-pu-	.	.	.	.
*Xtremolo	*	*	*	*	*	*	*	*	*
=21	=21	=21	=21	=21	=21	=21	=21	=21	=21
4C/	4.g/	2.ryy	2.ryy	8BB-/	-sci-	2.r	.	4.g\	a
.	.	.	.	8AA/	-li	.	.	.	.
4E/	.	.	.	4r	.	.	.	.	.
.	8f/L	.	.	.	.	.	.	8f/	po
4F/	8cc/	.	.	4r	.	.	.	8cc\	na-
.	8a/J	.	.	.	.	.	.	8a\	-wie-
=22	=22	=22	=22	=22	=22	=22	=22	=22	=22
4G\	8b-L 8g\	2.ryy	2.ryy	4r	.	2.r	.	8b-\L	-dze-
.	8ddJ 8b-\	.	.	.	.	.	.	8dd\J	.
4F\	8ccL 8a\	.	.	8r	.	.	.	8cc\	-niu
.	8ff 8a\	.	.	8A\	za-	.	.	8ff\	za-
4C/	8ee 8g\	.	.	8G\	-po-	.	.	8ee\	-po-
.	8ggJ 8b-\	.	.	8B-\	-mi-	.	.	8ff\	-mi-
=23	=23	=23	=23	=23	=23	=23	=23	=23	=23
!	!	!	!	!	!	!	!	!LO:LB:g=original	!
4F\	8ggL 8b-\	2.ryy	2.ryy	8B-\L	-na-	2.r	.	8gg\L	-na-
.	8ffJ 8a\	.	.	8A\J	.	.	.	8ff\J	.
4FF/	8ffL 8a\	.	.	8A\	-my	.	.	8ff\	-my
.	8cc 8a\	.	.	8A\	cze-	.	.	8cc\	cze-
4r	8cc 8a\	.	.	8A\	-gos-	.	.	8cc\	-gos-
.	8ccJ 8a\	.	.	8A\	-my	.	.	8cc\	-my
=24	=24	=24	=24	=24	=24	=24	=24	=24	=24
!LO:LB:g=original	!LO:LB:g=original	!	!	!LO:LB:g=original	!	!	!	!	!
8BB-/L	4.dd 4.b-\	2.ryy	2.ryy	4.B-\	Do-	2.r	.	4.dd\	do-
8B-\	.	.	.	.	.	.	.	.	.
8B-\	.	.	.	.	.	.	.	.	.
8B-\	8bb-L 8dd\	.	.	8d\	-pie-	.	.	8bb-\	-pie-
8An\	8gg 8b-\	.	.	8B-\	-ro	.	.	8gg\	-ro
8B-\J	8ffJ 8a\	.	.	8A\	pła-	.	.	8ff\	pła-
=25	=25	=25	=25	=25	=25	=25	=25	=25	=25
4c\	4ff 4a\	2.ryy	2.ryy	4A\	-ka-	2.r	.	4ff\	-ka-
4C/	4ee 4g\	.	.	4G\	-li	.	.	4ee\	-li
4r	4r	.	.	4r	.	.	.	4r	.
=26	=26	=26	=26	=26	=26	=26	=26	=26	=26
!LO:TX:t=P:problem=mixed beam	!	!	!	!	!	!	!	!	!
8FF/L	4a 4f\	2.ryy	2.ryy	4F\	Gdy	4F/	Gdy	4a\	Gdy
8F\	.	.	.	.	.	.	.	.	.
*tremolo	*	*	*	*	*	*	*	*	*
!LO:TX:t=P:problem=tremolo pod jedną belką z nutami poprzednimi	!	!	!	!	!	!	!	!	!
8F\	4b- 4g\	.	.	4F\	miecz	4G/	miecz	4b-\	miecz
8F\	.	.	.	.	.	.	.	.	.
8F\	4cc 4a\	.	.	4F\	twoy	4A/	twoy	4cc\	twoy
8F\J	.	.	.	.	.	.	.	.	.
*Xtremolo	*	*	*	*	*	*	*	*	*
=27	=27	=27	=27	=27	=27	=27	=27	=27	=27
!LO:TX:t=P:problem=mixed beam	!	!	!	!	!	!	!	!	!
!	!	!	!	!	!	!	!	!LO:LB:g=original	!
8FF/L	2dd 2b-\	2.ryy	2.ryy	2F\	na	2B-/	na	2dd\	na
8F\	.	.	.	.	.	.	.	.	.
*tremolo	*	*	*	*	*	*	*	*	*
!LO:TX:t=P:problem=tremolo pod jedną belką z nutami poprzednimi	!	!	!	!	!	!	!	!	!
8F\	.	.	.	.	.	.	.	.	.
8F\	.	.	.	.	.	.	.	.	.
8F\	4ee 4g\	.	.	4F\	nas	4G/	nas	4ee\	nas
8F\J	.	.	.	.	.	.	.	.	.
*Xtremolo	*	*	*	*	*	*	*	*	*
=28	=28	=28	=28	=28	=28	=28	=28	=28	=28
!LO:TX:t=P:problem=mixed beam	!	!	!	!	!	!	!	!	!
8FF/L	4.ff 4.a\	2.ryy	2.ryy	4.F\	trzy-	4.A/	pod-	4.ff\	pod-
8F\	.	.	.	.	.	.	.	.	.
*tremolo	*	*	*	*	*	*	*	*	*
!LO:TX:t=P:problem=tremolo pod jedną belką z nutami poprzednimi	!	!	!	!	!	!	!	!	!
8F\	.	.	.	.	.	.	.	.	.
8F\	8ffL 8a\	.	.	8F\	-marz	8A/	-nie-	8ff\	-nie-
*	*	*	*	*	*ij	*	*	*	*
8F\	8ee 8cc\	.	.	8F\	na	8c\	-sio-	8ee\	-sio-
8F\J	8ddJ 8b-\	.	.	8F\	nas	8B-\	-ny	8dd\	-ny
*Xtremolo	*	*	*	*	*	*	*	*	*
=29	=29	=29	=29	=29	=29	=29	=29	=29	=29
!LO:TX:t=P:problem=mixed beam	!	!	!	!	!	!	!	!	!
8FF/L	4dd 4b-\	2.ryy	2.ryy	4F\	trzy-	4B-\	trzy-	4dd\	trzy-
8F\	.	.	.	.	.	.	.	.	.
*tremolo	*	*	*	*	*	*	*	*	*
!LO:TX:t=P:problem=tremolo pod jedną belką z nutami poprzednimi	!	!	!	!	!	!	!	!	!
8F\	4cc 4a\	.	.	4F\	-marz	4A\	-masz	4cc\	-masz
*	*	*	*	*	*Xij	*	*	*	*
8F\	.	.	.	.	.	.	.	.	.
8F\	4r	.	.	4r	.	4r	.	4r	.
8F\J	.	.	.	.	.	.	.	.	.
*Xtremolo	*	*	*	*	*	*	*	*	*
=30	=30	=30	=30	=30	=30	=30	=30	=30	=30
!LO:TX:t=P:problem=mixed beam	!	!	!	!	!	!	!	!	!
8FF/L	4dd 4b-\	2.ryy	2.ryy	4F\	si-	4B-\	Si-	4dd\	si-
8F\	.	.	.	.	.	.	.	.	.
*tremolo	*	*	*	*	*	*	*	*	*
!LO:TX:t=P:problem=tremolo pod jedną belką z nutami poprzednimi	!	!	!	!	!	!	!	!	!
8F\	8ddL 8b-\	.	.	8F\	-łac	8B-\	-łac	8dd\	-łac
8F\	8dd 8b-\	.	.	8F\	o-	8B-\	o-	8dd\	o-
8F\	8cc 8a\	.	.	8F\	-bie-	8A\	-bie-	8cc\	-bie-
8F\J	8b-J 8g\	.	.	8F\	-cu-	8G\	-cu-	8b-\	-cu-
*Xtremolo	*	*	*	*	*	*	*	*	*
=31	=31	=31	=31	=31	=31	=31	=31	=31	=31
!LO:TX:t=P:problem=mixed beam	!	!	!	!	!	!	!	!	!
8FF/L	4b- 4g/	2.ryy	2.ryy	4F\	-ie-	4G\	-ie-	4b-\	-ie-
8F\	.	.	.	.	.	.	.	.	.
*tremolo	*	*	*	*	*	*	*	*	*
!LO:TX:t=P:problem=tremolo pod jedną belką z nutami poprzednimi	!	!	!	!	!	!	!	!	!
8F\	4a 4f/	.	.	4F\	-my	4F\	-my	4a\	-my
8F\	.	.	.	.	.	.	.	.	.
8F\	4r	.	.	4r	.	4r	.	4r	.
8F\J	.	.	.	.	.	.	.	.	.
*Xtremolo	*	*	*	*	*	*	*	*	*
=32	=32	=32	=32	=32	=32	=32	=32	=32	=32
*	*	*	*	*	*	*	*	*	*ij
!LO:TX:t=P:problem=mixed beam	!	!	!	!	!	!	!	!	!
!	!	!	!	!	!	!	!	!LO:LB:g=original	!
!	!	!	!	!LO:LB:g=original	!	!	!	!	!
8FF/L	4b- 4d/	2.ryy	2.ryy	4d\	si-	2.r	.	4b-\	si-
8F\	.	.	.	.	.	.	.	.	.
*tremolo	*	*	*	*	*	*	*	*	*
!LO:TX:t=P:problem=tremolo pod jedną belką z nutami poprzednimi	!	!	!	!	!	!	!	!	!
8F\	8b-L 8d/	.	.	8d\	-łac	.	.	8b-\	-łac
8F\	8b- 8d/	.	.	8d\	o-	.	.	8b-\	o-
8F\	8a 8c/	.	.	8c\	-bie-	.	.	8a\	-bie-
8F\J	8gJ 8B-/	.	.	8B-\	-cu-	.	.	8g\	-cu-
*Xtremolo	*	*	*	*	*	*	*	*	*
=33	=33	=33	=33	=33	=33	=33	=33	=33	=33
!LO:LB:g=original	!LO:LB:g=original	!	!	!	!	!	!	!	!
4F\	4g 4B-/	2.ryy	2.ryy	4B-\	-ie-	2.r	.	4g/	-ie-
4FF/	4f 4A/	.	.	4A\	-my	.	.	4f/	-my
*	*	*	*	*	*	*	*	*	*Xij
4r	4r	.	.	4r	.	.	.	4r	.
=34	=34	=34	=34	=34	=34	=34	=34	=34	=34
2.r	4.cc\	2.ryy	2.ryy	2.r	.	2.r	.	4.cc\	a
.	8cc\L	.	.	.	.	.	.	8cc\	sko-
.	8cc\	.	.	.	.	.	.	8cc\	-ro
.	8cc\J	.	.	.	.	.	.	8cc\	go
=35	=35	=35	=35	=35	=35	=35	=35	=35	=35
!	!	!	!	!	!	!LO:LB:g=original	!	!	!
4E 4EE\	4bb- 4gg 4ee\	2.ryy	2.ryy	4En\	spu-	4c\	Spu-	4bb-\	spu-
4F 4FF\	4aa 4ff 4cc\	.	.	4F\	-scis	4c\	-scisz	4gg\	-scisz
4r	4r	.	.	4r	.	4r	.	4r	.
=36	=36	=36	=36	=36	=36	=36	=36	=36	=36
!	!	!	!	!	!	!	!	!LO:PB:g=original	!
4B-\	16ddLL 16b-\	2.ryy	2.ryy	2.r	.	16B-\	O-	16dd\	o-
.	16dd 16b-\	.	.	.	.	16B-\	-bie-	16dd\	-bie-
.	16dd 16b-\	.	.	.	.	16B-\	-tni-	16dd\	-tni-
.	16ddJJ 16b-\	.	.	.	.	16B-\	-ce	16dd\	-ce
4c\	8ccL 8a\	.	.	.	.	8A\	wy-	8cc\	wy-
.	8b- 8g\	.	.	.	.	8G\	-ko-	8b-\	-ko-
4C/	8a 8f\	.	.	.	.	8F\	-nac	8a\	-nac
.	8gJ 8e\	.	.	.	.	8E\	nie	8g\	nie
=37	=37	=37	=37	=37	=37	=37	=37	=37	=37
4F\	4g 4B-/	2.ryy	2.ryy	2.r	.	4G/	chce-	4g\	chce-
4FF/	4f 4A/	.	.	.	.	4F/	-my	4f/	-my
4r	4r	.	.	.	.	4r	.	4r	.
=38	=38	=38	=38	=38	=38	=38	=38	=38	=38
2.r	4.cc\	2.ryy	2.ryy	2.r	.	2.r	.	4.cc\	a
.	8cc\L	.	.	.	.	.	.	8cc\	sko-
.	8cc\	.	.	.	.	.	.	8cc\	-ro
.	8cc\J	.	.	.	.	.	.	8cc\	go
=39	=39	=39	=39	=39	=39	=39	=39	=39	=39
*	*	*	*	*	*ij	*	*	*	*
!	!	!	!	!	!	!	!	!LO:LB:g=original	!
4E 4EE\	4bb- 4gg 4ee	2.ryy	2.ryy	4E\	spu-	4c\	Spu-	4bb-\	spu-
4F 4FF\	4aa 4ff 4cc\	.	.	4F\	-scis	4c\	-scisz	4aa\	-scisz
*	*	*	*	*	*Xij	*	*	*	*
4r	4r	.	.	4r	.	4r	.	4r	.
=40	=40	=40	=40	=40	=40	=40	=40	=40	=40
4B-\	16ddLL 16b-\	2.ryy	2.ryy	2.r	.	16B-\	o-	16dd\	o-
.	16dd 16b-\	.	.	.	.	16B-\	-bie-	16dd\	-bie-
.	16dd 16b-\	.	.	.	.	16B-\	-tni-	16dd\	-tni-
.	16ddJJ 16b-\	.	.	.	.	16B-\	-ce	16dd\	-ce
4c\	8ccL 8a\	.	.	.	.	8A\	wy-	8cc\	wy-
.	8b- 8g\	.	.	.	.	8G\	-ko-	8b-\	-ko-
4C/	8a 8f\	.	.	.	.	8F\	-nac	8a\	-nac
.	8gJ 8e\	.	.	.	.	8E\	niech-	8g\	nie
=41	=41	=41	=41	=41	=41	=41	=41	=41	=41
!LO:LB:g=original	!LO:LB:g=original	!	!	!	!	!LO:LB:g=original	!	!	!
4F\	4g 4B-/	2.ryy	2.ryy	4r	.	4G/	-ce-	4g\	chce-
4FF/	4f 4A/	.	.	4r	.	4F/	-my	4f/	-my
4r	8r	.	.	8r	.	4r	.	8r	.
.	8cc 8a\	.	.	8A\	Nie	.	.	8cc\	nie
=42	=42	=42	=42	=42	=42	=42	=42	=42	=42
!LO:TX:t=P:problem=mixed beam	!	!	!	!	!	!	!	!	!
!	!	!	!	!	!	!	!	!LO:LB:g=original	!
!	!	!	!	!	!	!LO:TX:a:t=3	!	!	!
8FF/L	8.ccL 8.a\	2.ryy	2.ryy	8.A\	chce-	2.r	.	(8.cc\	chce-
8F\J	.	.	.	.	.	.	.	.	.
.	16b-Jk 16g\	.	.	16G\	.	.	.	16b-\)	.
*tremolo	*	*	*	*	*	*	*	*	*
8F\L	4a 4f/	.	.	4F\	-my	.	.	4a\	-my
8F\	.	.	.	.	.	.	.	.	.
8F\	8r	.	.	8r	.	.	.	8r	.
*	*	*	*	*	*	*	*	*	*ij
8F\J	8a 8c/	.	.	8c\	Nie	.	.	8a\	nie
*Xtremolo	*	*	*	*	*	*	*	*	*
=43	=43	=43	=43	=43	=43	=43	=43	=43	=43
!LO:TX:t=P:problem=mixed beam	!	!	!	!	!	!	!	!	!
!	!	!	!	!LO:LB:g=original	!	!	!	!	!
8FF/L	8.aL 8.c/	2.ryy	2.ryy	8.c\	chce-	2.r	.	8.a\	chce-
8F\J	.	.	.	.	.	.	.	.	.
.	16gJk 16B-/	.	.	16B-\	.	.	.	16g\	.
*tremolo	*	*	*	*	*	*	*	*	*
8F\L	8fL 8c 8A/	.	.	8A\	-my	.	.	8f/	-my
*	*	*	*	*	*ij	*	*	*	*Xij
8F\	8cc 8a/	.	.	8A\	nie	.	.	8cc\	o-
8F\	8cc 8a/	.	.	8A\	chce-	.	.	8cc\	-bie-
8F\J	8ccJ 8a/	.	.	8A\	-my	.	.	8cc\	-tnic
*Xtremolo	*	*	*	*	*	*	*	*	*
=44	=44	=44	=44	=44	=44	=44	=44	=44	=44
4B-\	16ddLL 16b-\	2.ryy	2.ryy	16B-\	nie	2.r	.	16dd\	wy-
.	16ee 16g\	.	.	16G\	.	.	.	16ee\	-ko-
.	16ff 16a\	.	.	16A\	.	.	.	16ff\	-nac
.	16ggJJ 16b-\	.	.	16B-\	.	.	.	16gg\	nie
4c\	4ff 4a\	.	.	4c\	chce-	.	.	(4ff\	chce-
4C/	4ee 4g\	.	.	4C/	.	.	.	4ee\)	.
=45	=45	=45	=45	=45	=45	=45	=45	=45	=45
!	!	!	!	!	!	!	!	!LO:LB:g=original	!
4F\	4ff 4a\	2.ryy	2.ryy	4F\	-my	4r	.	4ff\	-my
*	*	*	*	*	*Xij	*	*	*	*
4r	8r	.	.	4r	.	8r	.	8r	.
.	8ffL 8a\	.	.	.	.	8A\	niech-	8ff\	nie
4C/	8ee 8g\	.	.	4r	.	8G\L	-ce-	8ee\L	chce-
.	8ggJ 8b-\	.	.	.	.	8B-\J	.	8gg\J	.
=46	=46	=46	=46	=46	=46	=46	=46	=46	=46
4F\	4ff 4a\	2.ryy	2.ryy	2.r	.	4A\	-my	4ff\	-my
4r	8r	.	.	.	.	8r	.	8r	.
*	*	*	*	*	*	*	*	*	*ij
.	8aaL 8ff\	.	.	.	.	8f\	niech-	8aa\L	nie
4C/	8gg 8ee\	.	.	.	.	8e\L	-ce-	8gg\	chce-
.	8bb-J 8gg\	.	.	.	.	8g\J	.	8bb-\J	.
=47	=47	=47	=47	=47	=47	=47	=47	=47	=47
4F\	4aa 4ff\	2.ryy	2.ryy	2.r	.	4f\	-my	4aa\	-my
*	*	*	*	*	*	*	*	*	*Xij
4r	8ccL 8a\	.	.	.	.	8A\	o-	8cc\	O-
.	8ccJ 8a\	.	.	.	.	8A\	-bie-	8cc\	-bie-
!LO:LB:g=original	!LO:LB:g=original	!	!	!	!	!	!	!	!
4r	8ccL 8a\	.	.	.	.	8A\	-tnic	8cc\	-tni-
.	8ccJ 8a\	.	.	.	.	8A\	wy-	8cc\	-ce
=48	=48	=48	=48	=48	=48	=48	=48	=48	=48
4B-\	8ddL 8b-\	2.ryy	2.ryy	2.r	.	8B-\	-ko-	8dd\	wy-
.	8bb- 8dd\	.	.	.	.	8d\	-nac	8bb-\	-ko-
4c\	8aa 8cc\	.	.	.	.	8c\	nie	8aa\	-nac
.	8ggJ 8b-\	.	.	.	.	8B-\	chce-	8gg\	nie
!	!	!	!	!	!	!	!	!LO:LB:g=original	!
4C/	8ffL 8a\	.	.	.	.	8A\L	.	8ff\L	chce-
.	8eeJ 8g\	.	.	.	.	8G\J	.	8ee\J	.
=49	=49	=49	=49	=49	=49	=49	=49	=49	=49
4F\	4ff 4a\	2.ryy	2.ryy	4r	.	4A\	-my	4ff\	-my
4r	8ccL 8a\	.	.	8F\	O-	8A\	o-	8cc\	O-
.	8cc 8a\	.	.	8F\	-bie-	8A\	-bie-	8cc\	-biet-
4r	8cc 8a\	.	.	8F\	-tni-	8A\	-tnic	8cc\	-ni-
.	8ccJ 8a\	.	.	8F\	-ce	8A\	.	8cc\	-ce
=50	=50	=50	=50	=50	=50	=50	=50	=50	=50
!	!	!	!	!	!	!LO:LB:g=original	!	!	!
4B-\	8ddL 8b-\	2.ryy	2.ryy	8B-\	wy-	8B-\	wy-	8dd\	wy-
.	8bb- 8dd\	.	.	8B-\	-ko-	8d\	-ko-	8bb-\	-ko-
4c\	8aa 8cc\	.	.	8A\	-nac	8c\	-nac	8aa\	-nac
.	8ggJ 8b-\	.	.	8B-\	nie	8B-\	niech	8gg\	nie
!	!	!	!	!LO:TX:t=P:problem=mixed beam	!	!	!	!	!
!	!	!	!	!LO:LB:g=original	!	!	!	!	!
4C/	8ffL 8a\	.	.	8c\L	chce-	8A\L	ce-	(8ff\	chce-
.	8eeJ 8g\	.	.	8C/J	.	8G\J	.	8ee\)	.
=51	=51	=51	=51	=51	=51	=51	=51	=51	=51
!LO:TX:t=P:problem=mixed beam	!	!	!	!	!	!	!	!	!
8FF/L	4ff 4a\	2.ryy	2.ryy	4F\	-my	4A\	-my	4ff\	-my
8F\J	.	.	.	.	.	.	.	.	.
*tremolo	*	*	*	*	*	*	*	*	*
8F\L	8r	.	.	4r	.	8r	.	8r	.
8F\	8cc 8a\	.	.	.	.	8A\	niech-	8cc\	nie
8F\	8.ccL 8.a\	.	.	4r	.	8.A\L	-ce-	(8.cc\	chce-
8F\J	.	.	.	.	.	.	.	.	.
.	16b-Jk 16g\	.	.	.	.	16G\Jk	.	16b-\)	.
*Xtremolo	*	*	*	*	*	*	*	*	*
=52	=52	=52	=52	=52	=52	=52	=52	=52	=52
!LO:TX:t=P:problem=mixed beam	!	!	!	!	!	!	!	!	!
!	!	!	!	!	!	!	!	!LO:LB:g=original	!
8FF/L	4a 4f/	2.ryy	2.ryy	4r	.	4F/	-my	4a\	-my
8F\J	.	.	.	.	.	.	.	.	.
*tremolo	*	*	*	*	*	*	*	*	*
8F\L	8r	.	.	8r	.	4r	.	8r	.
8F\	8a 8c/	.	.	16c\	Nie	.	.	8a\	nie
.	.	.	.	16c\	chce-	.	.	.	.
8F\	8.aL 8.c/	.	.	8B-\	.	4r	.	(8.a\	chce-
8F\J	.	.	.	8B-\	.	.	.	.	.
.	16gJk 16B-/	.	.	.	.	.	.	16g\)	.
*Xtremolo	*	*	*	*	*	*	*	*	*
=53	=53	=53	=53	=53	=53	=53	=53	=53	=53
!	!	!	!	!	!	!LO:TX:a:t=2	!	!	!
4FF\	4f 4A/	2.ryy	2.ryy	4A\	-my	2.r	.	4f/	-my
4FF\	4F</	.	.	4r	.	.	.	4r	.
4FF\	4F</	.	.	4r	.	.	.	4r	.
=54	=54	=54	=54	=54	=54	=54	=54	=54	=54
4FF\	4F</	2.ryy	2.ryy	2.r	.	2.r	.	2.r	.
4r	4ryy	.	.	.	.	.	.	.	.
4r	4ryy	.	.	.	.	.	.	.	.
==	==	==	==	==	==	==	==	==	==
*-	*-	*-	*-	*-	*-	*-	*-	*-	*-
!!!system-decoration: [(g1)][(g2)]{(g3)}
!!!RDF**kern: > = above
!!!RDF**kern: < = below
!!!ENC: Mateusz Solarz
!!!END: 2021-11-24
!!!ENC: Kamil Watkowski
!!!END: 2021-12-07
